icons/mobile/24/svg/baseball-24.svg

<svg width="24" height="24" viewBox="0 0 24 24" fill="none" xmlns="http://www.w3.org/2000/svg">
<path fill-rule="evenodd" clip-rule="evenodd" d="M12 2C17.5228 2 22 6.47715 22 12C22 17.5228 17.5228 22 12 22C6.47715 22 2 17.5228 2 12C2 6.47715 6.47715 2 12 2ZM12 3.75C9.89901 3.75 7.98196 4.53594 6.52539 5.8291C8.68327 7.13246 9.99902 9.44121 9.99902 12C9.99902 14.5586 8.6837 16.8672 6.52539 18.1699C7.98202 19.4633 9.89878 20.25 12 20.25C14.101 20.25 16.0171 19.4631 17.4736 18.1699C15.3156 16.8666 14 14.5593 14 12C14 9.44768 15.3161 7.13282 17.4727 5.8291C16.0162 4.53651 14.1005 3.75 12 3.75ZM18.6787 7.15918C16.8706 8.10918 15.75 9.95199 15.75 12C15.75 14.053 16.8689 15.8908 18.6787 16.8398C19.6658 15.4801 20.25 13.8088 20.25 12C20.25 10.1909 19.6661 8.51906 18.6787 7.15918ZM5.31934 7.16016C4.33266 8.51975 3.75 10.1916 3.75 12C3.75 13.8081 4.33294 15.4794 5.31934 16.8389C7.12938 15.8898 8.24902 14.0532 8.24902 12C8.24902 9.94665 7.12961 8.10913 5.31934 7.16016Z" fill="black"/>
</svg>

<!-- This Source Code Form is subject to the terms of the Mozilla Public
   - License, v. 2.0. If a copy of the MPL was not distributed with this
   - file, You can obtain one at http://mozilla.org/MPL/2.0/. -->
<svg xmlns="http://www.w3.org/2000/svg" width="24" height="24" fill="none" viewBox="0 0 24 24">
    <path fill="#000" fill-rule="evenodd" d="M12 2c5.523 0 10 4.477 10 10s-4.477 10-10 10S2 17.523 2 12 6.477 2 12 2m0 1.75a8.22 8.22 0 0 0-5.475 2.08A7.16 7.16 0 0 1 10 12a7.16 7.16 0 0 1-3.474 6.17A8.22 8.22 0 0 0 12 20.25a8.22 8.22 0 0 0 5.474-2.08A7.16 7.16 0 0 1 14 12a7.17 7.17 0 0 1 3.473-6.17A8.22 8.22 0 0 0 12 3.75m6.679 3.41A5.44 5.44 0 0 0 15.75 12a5.43 5.43 0 0 0 2.929 4.84A8.2 8.2 0 0 0 20.25 12a8.2 8.2 0 0 0-1.571-4.84m-13.36 0A8.2 8.2 0 0 0 3.75 12c0 1.808.583 3.48 1.57 4.839A5.43 5.43 0 0 0 8.248 12c0-2.053-1.12-3.89-2.93-4.84" clip-rule="evenodd" />
</svg>
